X: 26412
T: Merry Month Of May, The
R: jig
M: 6/8
K: Amajor
|:E|A2 A AGA|B2 c d2 e|f2 f ecA|AGA BGE|
A2 A AGA|B2 c d2 e|fga edc|1 BAG A2:|2 BAG A3||
|:B2 B B2 c|ded c2 e|a2 e a2 e|cBA e2 c|
B2 B B2 c|ded c2 e|a2 e a2 e|1 efe d2 c:|2 dcB A2||

